X:79
T:Return From Fingal, The
Z:According to a (none-too-reliable) tradition, this tune was played
Z:by Brian Boru's troops on the return from the Battle of Clontarf.
R:march
E:10
I:speed 325
M:2/4
K:EDor
B2GF EFGA|B2GF E4|AGFA d2A2|B2A2 Bcd2|\
B2GF EFGA|B2GF E4|AGFA d2AG|F2E2 E4:|*
f2e2 e2dc|B2A2 d2A2|B2A2 d2A2|B2A2 Bcde|\
f2e2 e2dc|B2A2 d2A2|AGFA d2AG|F2E2 E4:|**
<end>
<start>
